src/img/planet011.svg

<svg width="121" height="80" viewBox="0 0 121 80" fill="none" xmlns="http://www.w3.org/2000/svg">
<circle cx="63.3752" cy="39.617" r="25.9311" fill="#A6D9DD"/>
<path fill-rule="evenodd" clip-rule="evenodd" d="M25.6391 42.7239C24.9711 42.3816 24.315 42.023 23.6715 41.6486C7.03944 53.4596 -2.46997 63.9266 0.558602 68.4071C5.05926 75.0655 35.5445 65.982 68.6492 48.1185C101.754 30.255 124.942 10.3761 120.441 3.71775C117.602 -0.482858 104.421 1.58191 86.7641 8.16395C86.8222 8.84404 86.8595 9.52933 86.8755 10.2193C90.774 8.74816 94.4535 7.49734 97.8502 6.48523C103.94 4.67054 109.015 3.65587 112.765 3.47402C114.644 3.38292 116.073 3.50762 117.085 3.7772C118.085 4.04364 118.499 4.39805 118.681 4.66751C118.863 4.93698 119.022 5.42929 118.82 6.34437C118.616 7.27025 118.074 8.45832 117.11 9.90152C115.184 12.7822 111.817 16.3228 107.184 20.2942C97.9441 28.2156 83.9961 37.5758 67.5292 46.4615C51.0622 55.3472 35.2977 62.02 23.1498 65.6397C17.0595 67.4544 11.9849 68.469 8.23497 68.6509C6.35631 68.742 4.9273 68.6173 3.91514 68.3477C2.9148 68.0813 2.50085 67.7268 2.3187 67.4574C2.13656 67.1879 1.97817 66.6956 2.17989 65.7805C2.38399 64.8546 2.92564 63.6666 3.89036 62.2234C5.816 59.3427 9.18324 55.802 13.8157 51.8307C17.171 48.9542 21.1471 45.8881 25.6391 42.7239Z" fill="black"/>
<circle cx="63.3753" cy="39.617" r="38.617" stroke="black" stroke-width="2"/>
</svg>

<svg width="121" height="80" fill="none" xmlns="http://www.w3.org/2000/svg"><circle cx="63.375" cy="39.617" r="25.931" fill="#A6D9DD"/><path fill-rule="evenodd" clip-rule="evenodd" d="M25.64 42.724c-.669-.342-1.325-.701-1.968-1.075C7.039 53.459-2.47 63.927.559 68.407c4.5 6.659 34.986-2.425 68.09-20.288 33.105-17.864 56.293-37.743 51.792-44.401-2.839-4.2-16.02-2.136-33.677 4.446.058.68.096 1.365.112 2.055 3.898-1.47 7.578-2.722 10.974-3.734 6.09-1.814 11.165-2.83 14.915-3.011 1.879-.091 3.308.034 4.32.303 1 .267 1.414.621 1.596.89.182.27.341.762.139 1.677-.204.926-.746 2.114-1.71 3.558-1.926 2.88-5.293 6.42-9.926 10.392-9.24 7.922-23.188 17.282-39.655 26.168C51.062 55.346 35.298 62.02 23.15 65.64c-6.09 1.814-11.164 2.829-14.914 3.01-1.879.092-3.308-.033-4.32-.302-1-.267-1.414-.621-1.596-.89-.182-.27-.34-.762-.14-1.677.205-.926.747-2.114 1.711-3.558 1.926-2.88 5.293-6.421 9.926-10.392 3.355-2.877 7.331-5.943 11.823-9.107Z" fill="#000"/><circle cx="63.375" cy="39.617" r="38.617" stroke="#000" stroke-width="2"/></svg>
